!!!OTL: Bluemlein auf der Haide. / Der Nuernberger Schullehrer Notenbuch [...]
!!!ARE: Europa, Mitteleuropa, Deutschland
!!!SCT: A0635cc
!!!TXL: @@DE
!!!YEM: Copyright 1995, estate of Helmut Schaddrath.
**kern	**text
*M3/1yy	*
*clefC3	*
*k[]	*
*G:	*
=1-	=1-
!LO:TX:a:t=P:coloured notes m1-5:problem	!
1ryy	.
1ryy	.
{1d	Freud
=2-	=2-
0d	euch
1d	freud
=3-	=3-
0e	euch
1e	in
=4-	=4-
0c	di-
1c	-ſer
=5-	=5-
0A;}	ʒeit,
{1f	Ihr
=6-	=6-
1f	wer-
1e	-den
1c	Chri-
=7-	=7-
1d	-ſten
1e	al-
2e	.
2d	.
=8-	=8-
2c/	.
2B	.
1A	.
2B	.
1d	.
=9-	=9-
.	.
4B	.
4A	.
1c	.
=10-	=10-
1.d\ll}	-le
==	==
!!!GTL: Geistliche Volkslieder
!!!AGN: Romanze, Ballade, Lied, religioeses Lied
!! Notenccucher 1551 No. 3.
!!!ONB: ESAC (Essen Associative Code) Dataccase: ALTDEU
!!!AMT: simple triple
!!!AIN: vox
!!!EED: Helmut Schaddrath
!!!EEV: 1.0
!!!RDF**kern: l = terminal long
!!!URL-scan: https://rosdok.uni-rostock.de/mcrviewer/recordIdentifier/rosdok_ppn738218359/iview2/phys_0816.iview2?x=103.78555911183139&y=2458.99200951308&scale=0.7106933083589261&rotation=0&layout=singlePageLayout&logicalDiv=log_0007
!!!ENC: Anna Maria Matuszewska
!!!EEV: 2024/25/03
*-	*-
